X:1
T:Jimmy Rollo
M:C
L:1/8
Q:80
C:Bruce Gandy
S:Strathspey
K:HP
|: {gAGAG}A2{g}A3/2{d}B/2{g}G3/2A/2{g}B/2d3/2|
{gef}e2{GdG}e3/2f/2{gf}g3/2e/2{g}((3fed)|
{gBd}B/2{e}A3/2{gAGAG}A3/2{d}B/2{g}G3/2A/2{g}B/2d3/2|  !
{g}e3/2f/2{gf}g3/2e/2{g}((3fed){gef}e:| |:
f|
{gf}g2{GdG}g3/2e/2{gfg}f2{g}((3fed)|
{g}e3/2f/2{gf}g3/2e/2{g}f/2a3/2{g}a3/2f/2|  !
{g}e/2g3/2{f}g3/2e/2{g}((3f3/2g/2{a}fed)|
{g}e3/2f/2{gf}g3/2e/2{g}((3fed){gef}e2:|

